X:1
T:Suffolk, 85.85 D
T:Suffolk, 85.85 D
T:M. F. H. Smith, 1863
T:Public Domain Courtesy of the Cyber Hymnal™
C:M. F. H. Smith, 1863
Z:Public Domain
Z:Courtesy of the Cyber Hymnal™
%%score ( 1 2 ) ( 3 4 )
L:1/8
Q:1/4=78
M:2/4
K:Bb
V:1 treble 
V:2 treble 
V:3 bass 
V:4 bass 
V:1
 [DF]>[DF] [EG][DF] | [DB]>[Ec] [Fd][FB] | [Fc]>[Fc] [Fe][Fd] | [Fc]3 z | [DF]>[DF] [EG][DF] | %5
 [DB]>[Ec] [Fd][FB] | [FA][FB] [Fc]>[EF] | [DB]3 z | [Fc]>[Fc] [Fc][Fc] | [Fe][Fd] [Fd]<[Fc] | %10
 [Gc]>[Gc] [G^c][Gc] | d3 z | [Fd]>[Ge] [Fd][Ec] | [DB]>[FA] [FA][EG] | [DF][DB] [Fd]>[Ec] | %15
 [DB]3 z |] %16
V:2
 x4 | x4 | x4 | x4 | x4 | x4 | x4 | x4 | x4 | x4 | x4 | (G2 ^F) x | x4 | x4 | x4 | x4 |] %16
V:3
 [B,,B,]>[B,,B,] [B,,B,][B,,B,] | [B,,B,]>[B,,B,] [B,,B,][B,,D] | [F,A,]>[F,A,] [F,C][F,B,] | %3
 [F,A,]3 z | [B,,B,]>[B,,B,] [B,,B,][B,,B,] | [B,,B,]>[B,,B,] [B,,B,][D,B,] | %6
 [F,C][F,D] [F,A,]>[F,A,] | [B,,B,]3 z | [F,A,]>[F,A,] [F,A,]B, | [A,C]B, [F,B,]<[F,A,] | %10
 [E,B,]>[E,B,] [E,B,][E,B,] | (B,2 A,) z | [B,,B,]>[B,,B,] [B,,B,][B,,B,] | %13
 [B,,B,]>[D,B,] [E,B,][E,B,] | [F,B,][F,B,] [F,B,]>[F,B,] | [B,,B,]3 z |] %16
V:4
 x4 | x4 | x4 | x4 | x4 | x4 | x4 | x4 | x3 B, | x B, x2 | x4 | D,3 x | x4 | x4 | x4 | x4 |] %16

